assets/icons/icon_media_git_green.svg

<svg width="22" height="21" viewBox="0 0 22 21" fill="none" xmlns="http://www.w3.org/2000/svg">
<path d="M11.3415 0C5.66136 0 1 4.73282 1 10.5C1 15.4214 4.40118 19.8919 8.91768 21V17.5262C8.47017 17.6257 8.05831 17.6285 7.60275 17.4922C6.9916 17.3091 6.49501 16.8957 6.12639 16.2654C5.89143 15.863 5.475 15.4265 5.04058 15.4586L4.93407 14.2329C5.87344 14.1512 6.6861 14.814 7.16849 15.6369C7.38278 16.0028 7.62942 16.2174 7.94596 16.3122C8.25193 16.4037 8.58047 16.3598 8.96329 16.2225C9.05939 15.4443 9.41049 15.153 9.67575 14.7429V14.7422C6.98213 14.3343 5.90863 12.8834 5.48257 11.7382C4.91797 10.2175 5.22094 8.31784 6.21933 7.11733C6.23874 7.09394 6.27377 7.03274 6.2602 6.98996C5.80243 5.58598 6.36025 4.42456 6.38076 4.30135C6.90907 4.45997 6.99491 4.14178 8.67562 5.17854L8.96613 5.35574C9.08763 5.42928 9.04945 5.38731 9.17095 5.37801C9.87268 5.18447 10.6124 5.07761 11.3413 5.06799C12.0757 5.07761 12.8107 5.18447 13.5415 5.38586L13.6355 5.39548C13.6273 5.3942 13.6611 5.38939 13.7177 5.3551C15.8173 4.06391 15.7418 4.48592 16.3049 4.30007C16.3252 4.42344 16.8756 5.60376 16.4227 6.98996C16.3617 7.18094 18.2429 8.93003 17.2002 11.7377C16.7741 12.8834 15.7008 14.3343 13.0072 14.7422V14.7429C13.3524 15.2772 13.7673 15.5614 13.7651 16.6637V21C18.2817 19.8919 21.6828 15.4214 21.6828 10.5C21.6829 4.73282 17.0216 0 11.3415 0V0Z" fill="#03CCAB"/>
</svg>

<svg width="22" height="21" fill="none" xmlns="http://www.w3.org/2000/svg"><path d="M11.341 0C5.662 0 1 4.733 1 10.5c0 4.921 3.401 9.392 7.918 10.5v-3.474c-.448.1-.86.102-1.315-.034-.611-.183-1.108-.596-1.477-1.227-.235-.402-.651-.838-1.085-.806l-.107-1.226c.94-.082 1.752.581 2.234 1.404.215.366.461.58.778.675.306.092.634.048 1.017-.09.096-.778.447-1.069.713-1.48-2.694-.408-3.767-1.859-4.193-3.004-.565-1.52-.262-3.42.736-4.62.02-.024.055-.085.041-.128-.458-1.404.1-2.565.12-2.689.53.159.615-.16 2.296.878l.29.177c.122.073.083.031.205.022a8.653 8.653 0 0 1 2.17-.31 8.69 8.69 0 0 1 2.2.318l.095.01c-.009-.002.025-.007.082-.04 2.1-1.292 2.024-.87 2.587-1.056.02.123.57 1.304.118 2.69-.061.19 1.82 1.94.777 4.748-.426 1.145-1.5 2.596-4.193 3.004.345.535.76.82.758 1.922V21c4.517-1.108 7.918-5.579 7.918-10.5 0-5.767-4.661-10.5-10.341-10.5Z" fill="#03CCAB"/></svg>
